images/icon_instagram.svg

<svg width="31" height="31" viewBox="0 0 31 31" fill="none" xmlns="http://www.w3.org/2000/svg">
<path d="M18.2246 15.5C18.2246 13.9953 17.0047 12.7754 15.5 12.7754C13.9953 12.7754 12.7754 13.9953 12.7754 15.5C12.7754 17.0047 13.9953 18.2246 15.5 18.2246C17.0047 18.2246 18.2246 17.0047 18.2246 15.5Z" fill="#072EFC"/>
<path d="M20.1016 23.7344H10.8984C8.89519 23.7344 7.26562 22.1048 7.26562 20.1016V10.8984C7.26562 8.89519 8.89519 7.26562 10.8984 7.26562H20.1016C22.1048 7.26562 23.7344 8.89519 23.7344 10.8984V20.1016C23.7344 22.1048 22.1048 23.7344 20.1016 23.7344ZM15.5 10.959C12.9961 10.959 10.959 12.9961 10.959 15.5C10.959 18.0039 12.9961 20.041 15.5 20.041C18.0039 20.041 20.041 18.0039 20.041 15.5C20.041 12.9961 18.0039 10.959 15.5 10.959ZM20.707 19.7988C20.2054 19.7988 19.7988 20.2054 19.7988 20.707C19.7988 21.2087 20.2054 21.6152 20.707 21.6152C21.2087 21.6152 21.6152 21.2087 21.6152 20.707C21.6152 20.2054 21.2087 19.7988 20.707 19.7988Z" fill="#072EFC"/>
<path d="M22.8262 31H8.17383C3.66687 31 0 27.3331 0 22.8262V8.17383C0 3.66687 3.66687 0 8.17383 0H22.8262C27.3331 0 31 3.66687 31 8.17383V22.8262C31 27.3331 27.3331 31 22.8262 31ZM25.5508 10.8984C25.5508 7.8938 23.1062 5.44922 20.1016 5.44922H10.8984C7.8938 5.44922 5.44922 7.8938 5.44922 10.8984V20.1016C5.44922 23.1062 7.8938 25.5508 10.8984 25.5508H20.1016C23.1062 25.5508 25.5508 23.1062 25.5508 20.1016V10.8984Z" fill="#072EFC"/>
</svg>

<svg width="31" height="31" fill="none" xmlns="http://www.w3.org/2000/svg"><path d="M18.225 15.5a2.725 2.725 0 10-5.45 0 2.725 2.725 0 005.45 0z" fill="#072EFC"/><path d="M20.102 23.734h-9.204a3.637 3.637 0 01-3.632-3.632v-9.204a3.637 3.637 0 013.632-3.632h9.204a3.637 3.637 0 013.632 3.632v9.204a3.637 3.637 0 01-3.632 3.632zM15.5 10.96a4.546 4.546 0 00-4.541 4.541 4.546 4.546 0 004.541 4.541 4.546 4.546 0 004.541-4.541A4.546 4.546 0 0015.5 10.96zm5.207 8.84a.908.908 0 100 1.816.908.908 0 000-1.816z" fill="#072EFC"/><path d="M22.826 31H8.174C3.667 31 0 27.333 0 22.826V8.174C0 3.667 3.667 0 8.174 0h14.652C27.333 0 31 3.667 31 8.174v14.652C31 27.333 27.333 31 22.826 31zm2.725-20.102A5.455 5.455 0 0020.1 5.45h-9.203A5.455 5.455 0 005.45 10.9v9.203a5.455 5.455 0 005.45 5.449h9.203a5.455 5.455 0 005.449-5.45v-9.203z" fill="#072EFC"/></svg>
